public/assets/logo/logo-gray.svg

<svg width="30" height="24" viewBox="0 0 30 24" fill="none" xmlns="http://www.w3.org/2000/svg">
<path d="M0 11.9993L6.50488 5.55159L8.36305 7.39343L3.71633 11.9993L8.36305 16.6053L6.50488 18.4471L0 11.9993ZM10.7771 23.3683L16.6722 0L19.2216 0.63175L13.3278 24L10.7771 23.3683ZM21.6356 16.6053L26.2824 11.9993L21.6356 7.39343L23.4951 5.55159L30 11.9993L23.4951 18.4471L21.6356 16.6053Z" fill="#909090"/>
</svg>

<svg xmlns="http://www.w3.org/2000/svg" width="30" height="24" fill="none"><path fill="#909090" d="m0 12 6.505-6.448 1.858 1.841L3.716 12l4.647 4.606-1.858 1.842L0 12Zm10.777 11.368L16.672 0l2.55.632L13.328 24l-2.55-.632Zm10.859-6.763L26.282 12l-4.646-4.606 1.86-1.841L30 11.999l-6.505 6.448-1.86-1.842Z"/></svg>
